packages/kaspersky-hexa-ui-icons/src/iconsSVGs/48/Group.svg

<svg xmlns="http://www.w3.org/2000/svg" width="48" height="48" fill="none" viewBox="0 0 48 48"><path fill="#000" fill-rule="evenodd" d="M3 0C1.3432 0 0 1.3432 0 3v8c0 1.6569 1.3432 3 3 3h8c1.6569 0 3-1.3431 3-3V8h12c1.1046 0 2 .8954 2 2v13H14v-3c0-1.6569-1.3431-3-3-3H3c-1.6568 0-3 1.3431-3 3v8c0 1.6569 1.3432 3 3 3h8c1.6569 0 3-1.3431 3-3v-3h14v13c0 1.1046-.8954 2-2 2H14v-3c0-1.6569-1.3431-3-3-3H3c-1.6568 0-3 1.3431-3 3v8c0 1.6569 1.3432 3 3 3h8c1.6569 0 3-1.3431 3-3v-3h12c2.2091 0 4-1.7909 4-4V25h14.5858l-3.7929 3.7929c-.3905.3905-.3905 1.0237 0 1.4142s1.0237.3905 1.4142 0l5.5-5.5a.997.997 0 0 0 .2916-.7586.997.997 0 0 0-.2916-.6556l-5.5-5.5c-.3905-.3905-1.0237-.3905-1.4142 0s-.3905 1.0237 0 1.4142L44.5858 23H30V10c0-2.2091-1.7909-4-4-4H14V3c0-1.6568-1.3431-3-3-3zm9 37c0-.5523-.4477-1-1-1H3c-.5523 0-1 .4477-1 1v8c0 .5523.4477 1 1 1h8c.5523 0 1-.4477 1-1zm0-34c0-.5523-.4477-1-1-1H3c-.5523 0-1 .4477-1 1v8c0 .5523.4477 1 1 1h8c.5523 0 1-.4477 1-1zm0 17c0-.5523-.4477-1-1-1H3c-.5523 0-1 .4477-1 1v8c0 .5523.4477 1 1 1h8c.5523 0 1-.4477 1-1z"/></svg>

<svg width="48" height="48" viewBox="0 0 48 48" fill="none" xmlns="http://www.w3.org/2000/svg">
<g clip-path="url(#clip0_8173_2800)">
<path fill-rule="evenodd" clip-rule="evenodd" d="M3 0C1.34315 0 0 1.34315 0 3V11C0 12.6569 1.34315 14 3 14H11C12.6569 14 14 12.6569 14 11V8H26C27.1046 8 28 8.89543 28 10V23H14V20C14 18.3431 12.6569 17 11 17H3C1.34315 17 0 18.3431 0 20V28C0 29.6569 1.34315 31 3 31H11C12.6569 31 14 29.6569 14 28V25H28V38C28 39.1046 27.1046 40 26 40H14V37C14 35.3431 12.6569 34 11 34H3C1.34315 34 0 35.3431 0 37V45C0 46.6569 1.34315 48 3 48H11C12.6569 48 14 46.6569 14 45V42H26C28.2091 42 30 40.2091 30 38V25H44.5858L40.7929 28.7929C40.4024 29.1834 40.4024 29.8166 40.7929 30.2071C41.1834 30.5976 41.8166 30.5976 42.2071 30.2071L47.7071 24.7071C47.803 24.6112 47.8753 24.5007 47.9241 24.3828C47.973 24.2649 48 24.1356 48 24C48 23.9827 47.9996 23.9656 47.9987 23.9485C47.9928 23.8317 47.9668 23.7201 47.9241 23.6172C47.8753 23.4993 47.803 23.3888 47.7071 23.2929L42.2071 17.7929C41.8166 17.4024 41.1834 17.4024 40.7929 17.7929C40.4024 18.1834 40.4024 18.8166 40.7929 19.2071L44.5858 23H30V10C30 7.79086 28.2091 6 26 6H14V3C14 1.34315 12.6569 0 11 0H3ZM12 37C12 36.4477 11.5523 36 11 36H3C2.44772 36 2 36.4477 2 37V45C2 45.5523 2.44772 46 3 46H11C11.5523 46 12 45.5523 12 45V37ZM12 3C12 2.44772 11.5523 2 11 2H3C2.44772 2 2 2.44772 2 3V11C2 11.5523 2.44772 12 3 12H11C11.5523 12 12 11.5523 12 11V3ZM12 20C12 19.4477 11.5523 19 11 19H3C2.44772 19 2 19.4477 2 20V28C2 28.5523 2.44772 29 3 29H11C11.5523 29 12 28.5523 12 28V20Z" fill="black"/>
</g>
<defs>
<clipPath id="clip0_8173_2800">
<rect width="48" height="48" fill="white"/>
</clipPath>
</defs>
</svg>
